dist/img/svg/icon-youtube.svg

<svg width="30" height="30" viewBox="0 0 30 30" fill="none" xmlns="http://www.w3.org/2000/svg">
<circle cx="15" cy="15" r="15" fill="#006A6A"/>
<path d="M24 14.948C24 14.9074 24 14.8613 23.9981 14.8077C23.9961 14.6581 23.9923 14.4901 23.9884 14.3109C23.973 13.7957 23.9461 13.2823 23.9037 12.7985C23.846 12.1318 23.7613 11.5759 23.6458 11.1586C23.5239 10.723 23.2849 10.3258 22.9528 10.0066C22.6207 9.68737 22.2071 9.45737 21.7533 9.33955C21.2084 9.1992 20.1419 9.11241 18.6402 9.05885C17.9259 9.033 17.1616 9.01638 16.3973 9.00714C16.1297 9.00345 15.8813 9.0016 15.658 8.99976H15.092C14.8687 9.0016 14.6203 9.00345 14.3527 9.00714C13.5884 9.01638 12.8241 9.033 12.1098 9.05885C10.6081 9.11425 9.53965 9.20105 8.99674 9.33955C8.54277 9.45708 8.12898 9.68699 7.79683 10.0062C7.46468 10.3255 7.22584 10.7229 7.10424 11.1586C6.9868 11.5759 6.90402 12.1318 6.84626 12.7985C6.80391 13.2823 6.77695 13.7957 6.76155 14.3109C6.75578 14.4901 6.75385 14.6581 6.75193 14.8077C6.75193 14.8613 6.75 14.9074 6.75 14.948V15.0515C6.75 15.0921 6.75 15.1383 6.75193 15.1918C6.75385 15.3414 6.7577 15.5095 6.76155 15.6886C6.77695 16.2038 6.80391 16.7172 6.84626 17.201C6.90402 17.8677 6.98873 18.4236 7.10424 18.8409C7.35067 19.7255 8.07455 20.4236 8.99674 20.66C9.53965 20.8003 10.6081 20.8871 12.1098 20.9407C12.8241 20.9665 13.5884 20.9831 14.3527 20.9924C14.6203 20.9961 14.8687 20.9979 15.092 20.9998H15.658C15.8813 20.9979 16.1297 20.9961 16.3973 20.9924C17.1616 20.9831 17.9259 20.9665 18.6402 20.9407C20.1419 20.8853 21.2104 20.7985 21.7533 20.66C22.6754 20.4236 23.3993 19.7274 23.6458 18.8409C23.7632 18.4236 23.846 17.8677 23.9037 17.201C23.9461 16.7172 23.973 16.2038 23.9884 15.6886C23.9942 15.5095 23.9961 15.3414 23.9981 15.1918C23.9981 15.1383 24 15.0921 24 15.0515V14.948ZM22.6138 15.0441C22.6138 15.0829 22.6138 15.1253 22.6119 15.1752C22.61 15.3192 22.6061 15.4781 22.6023 15.6498C22.5888 16.141 22.5619 16.6323 22.5214 17.0884C22.4694 17.683 22.3963 18.1706 22.3058 18.4974C22.1864 18.924 21.836 19.262 21.3932 19.3746C20.9889 19.4781 19.9705 19.5612 18.5863 19.611C17.8855 19.6369 17.1308 19.6535 16.378 19.6627C16.1143 19.6664 15.8698 19.6683 15.6503 19.6683H15.0997L14.372 19.6627C13.6192 19.6535 12.8664 19.6369 12.1637 19.611C10.7795 19.5593 9.75912 19.4781 9.35675 19.3746C8.91395 19.2601 8.56356 18.924 8.4442 18.4974C8.35371 18.1706 8.28055 17.683 8.22857 17.0884C8.18814 16.6323 8.16311 16.141 8.14771 15.6498C8.14194 15.4781 8.14001 15.3174 8.13809 15.1752C8.13809 15.1253 8.13616 15.081 8.13616 15.0441V14.9554C8.13616 14.9167 8.13616 14.8742 8.13809 14.8243C8.14001 14.6803 8.14386 14.5215 8.14771 14.3497C8.16119 13.8585 8.18814 13.3673 8.22857 12.9111C8.28055 12.3165 8.35371 11.8289 8.4442 11.5021C8.56356 11.0755 8.91395 10.7375 9.35675 10.6249C9.76105 10.5215 10.7795 10.4384 12.1637 10.3885C12.8645 10.3626 13.6192 10.346 14.372 10.3368C14.6357 10.3331 14.8802 10.3312 15.0997 10.3312H15.6503L16.378 10.3368C17.1308 10.346 17.8836 10.3626 18.5863 10.3885C19.9705 10.4402 20.9909 10.5215 21.3932 10.6249C21.836 10.7394 22.1864 11.0755 22.3058 11.5021C22.3963 11.8289 22.4694 12.3165 22.5214 12.9111C22.5619 13.3673 22.5869 13.8585 22.6023 14.3497C22.6081 14.5215 22.61 14.6821 22.6119 14.8243C22.6119 14.8742 22.6138 14.9185 22.6138 14.9554V15.0441ZM13.6616 17.4744L18.1281 14.9813L13.6616 12.5251V17.4744Z" fill="white"/>
</svg>

<svg width="30" height="30" viewBox="0 0 30 30" fill="none" xmlns="http://www.w3.org/2000/svg"><circle cx="15" cy="15" r="15" fill="#006A6A"/><path d="M24 14.948c0-.04 0-.087-.002-.14-.002-.15-.006-.318-.01-.497a26.637 26.637 0 00-.084-1.512c-.058-.667-.143-1.223-.258-1.64a2.554 2.554 0 00-.693-1.152 2.714 2.714 0 00-1.2-.667c-.545-.14-1.611-.228-3.113-.281a94.456 94.456 0 00-2.243-.052c-.267-.004-.516-.005-.739-.007h-.566c-.223.002-.472.003-.74.007-.764.01-1.528.026-2.242.052-1.502.055-2.57.142-3.113.28a2.711 2.711 0 00-1.2.667 2.56 2.56 0 00-.693 1.153c-.117.417-.2.973-.258 1.64-.042.483-.069.997-.084 1.512-.006.18-.008.347-.01.497l-.002.14v.104c0 .04 0 .086.002.14.002.15.006.317.01.497.015.515.042 1.028.084 1.512.058.667.143 1.223.258 1.64.247.884.97 1.583 1.893 1.819.543.14 1.611.227 3.113.28.714.026 1.478.043 2.243.052.267.004.516.006.739.008h.566c.223-.002.472-.004.74-.008a97.822 97.822 0 002.242-.051c1.502-.056 2.57-.142 3.113-.281.922-.236 1.646-.933 1.893-1.82.117-.416.2-.972.258-1.639.042-.484.069-.997.084-1.512.006-.18.008-.348.01-.497l.002-.14v-.104zm-1.386.096c0 .039 0 .081-.002.131-.002.144-.006.303-.01.475-.013.491-.04.982-.08 1.438-.053.595-.126 1.083-.216 1.41a1.27 1.27 0 01-.913.877c-.404.103-1.422.186-2.807.236a90.774 90.774 0 01-2.936.057h-.55l-.728-.005a91.002 91.002 0 01-2.208-.052c-1.384-.052-2.405-.133-2.807-.236a1.273 1.273 0 01-.913-.878c-.09-.326-.163-.814-.215-1.409-.04-.456-.066-.947-.081-1.438-.006-.172-.008-.333-.01-.475l-.002-.13v-.09c0-.038 0-.08.002-.13.002-.145.006-.303.01-.475.013-.492.04-.983.08-1.439.053-.595.126-1.082.216-1.409.12-.427.47-.764.913-.877.404-.104 1.423-.187 2.807-.236a90.774 90.774 0 012.936-.058h.55l.728.006c.753.009 1.506.026 2.208.052 1.385.051 2.405.133 2.807.236.443.114.793.45.913.877.09.327.163.814.215 1.41.04.455.066.946.081 1.438.006.171.008.332.01.474l.002.131v.09zm-8.952 2.43l4.466-2.493-4.466-2.456v4.95z" fill="#fff"/></svg>
